SVG Logos/Networking/cilium.svg

<svg xmlns="http://www.w3.org/2000/svg" fill="none" viewBox="0 0 760 840"><path fill="#1E2322" d="M91.127 663.001a84.51 84.51 0 0 1 19.091 2.093 56.7 56.7 0 0 1 15.571 5.872v18.742a125.551 125.551 0 0 0-16.755-5.217 70.94 70.94 0 0 0-15.571-1.749 51.907 51.907 0 0 0-16.63 2.78 37.972 37.972 0 0 0-14.762 9.058 45.382 45.382 0 0 0-10.495 16.681 72.567 72.567 0 0 0-4.018 25.613 68.917 68.917 0 0 0 2.959 20.585 46.428 46.428 0 0 0 8.844 16.336 39.594 39.594 0 0 0 14.669 10.714 50.262 50.262 0 0 0 20.398 3.873 80.703 80.703 0 0 0 16.942-1.843 95.559 95.559 0 0 0 16.63-5.122v18.741a40.38 40.38 0 0 1-6.447 2.905 71.303 71.303 0 0 1-8.751 2.53 101.68 101.68 0 0 1-10.121 1.75 87.592 87.592 0 0 1-10.713.655 80.745 80.745 0 0 1-26.253-4.216 59.134 59.134 0 0 1-21.613-12.901 60.76 60.76 0 0 1-14.606-22.084 84.341 84.341 0 0 1-5.481-31.517 98.418 98.418 0 0 1 2.802-24.52 74.094 74.094 0 0 1 7.755-19.148 57.842 57.842 0 0 1 11.492-14.087 64.398 64.398 0 0 1 29.46-14.869 74.26 74.26 0 0 1 15.603-1.655ZM163 634v-25h23.288v25H163Zm.615 170V666.094H187V804h-23.385ZM233 804V594h22v210h-22ZM302 634v-25h22.409v25H302Zm.591 170V666.094H325V804h-22.409ZM424.575 807.994a73.971 73.971 0 0 1-19.435-2.351 52.277 52.277 0 0 1-15.158-6.427 42.987 42.987 0 0 1-11.006-10.127 49.724 49.724 0 0 1-7.17-12.886 51.758 51.758 0 0 1-2.925-11.506 101.451 101.451 0 0 1-.88-13.67V666h22.642v84.651a52.275 52.275 0 0 0 3.145 19.219 28.518 28.518 0 0 0 11.321 13.764 36.157 36.157 0 0 0 19.938 5.016 35.018 35.018 0 0 0 20.661-5.518 30.544 30.544 0 0 0 11.195-14.861 54.733 54.733 0 0 0 2.453-17.62V666h22.642v85.027a99.257 99.257 0 0 1-.786 13.043 58.1 58.1 0 0 1-2.547 11.161 51.688 51.688 0 0 1-7.233 13.168 45.505 45.505 0 0 1-11.321 10.409 54.843 54.843 0 0 1-15.724 6.772 76.16 76.16 0 0 1-19.812 2.414ZM636.627 804h-22.512v-88.367a51.522 51.522 0 0 0-1.97-15.251 26.784 26.784 0 0 0-5.66-10.334 22.174 22.174 0 0 0-8.849-5.914 33.71 33.71 0 0 0-11.538-1.899 39.373 39.373 0 0 0-21.887 6.443 65.525 65.525 0 0 0-17.698 17.711V804H524V666.641h17.416l4.347 19.08h.437a79.532 79.532 0 0 1 8.224-8.902c3-2.782 6.316-5.205 9.88-7.221a48.777 48.777 0 0 1 11.976-4.856 55.564 55.564 0 0 1 14.227-1.712 42.514 42.514 0 0 1 25.546 7.346 47.5 47.5 0 0 1 15.634 20.108h.594a73.262 73.262 0 0 1 20.95-20.17 51.184 51.184 0 0 1 27.484-7.284 63.095 63.095 0 0 1 15.416 2.024 38.898 38.898 0 0 1 14.977 7.439 40.755 40.755 0 0 1 11.35 14.971 57.698 57.698 0 0 1 4.503 24.559V804h-22.513v-88.367a52.672 52.672 0 0 0-1.939-15.251 27.65 27.65 0 0 0-5.784-10.428 22.283 22.283 0 0 0-8.88-5.914 33.733 33.733 0 0 0-11.538-1.898 39.65 39.65 0 0 0-21.888 6.443 64.864 64.864 0 0 0-17.792 17.711V804Z"/><path fill="#CBDD72" d="M172.5 131h83l41.5 72-41.5 72h-83L131 203l41.5-72Z"/><path fill="#98CA3F" d="M172.5 316h83l41.5 71.5-41.5 71.5h-83L131 387.5l41.5-71.5Z"/><path fill="#6389C6" d="M334.5 407h83l41.5 71.5-41.5 71.5h-83L293 478.5l41.5-71.5Z"/><path fill="#E8282B" d="M334.5 222h83l41.5 72-41.5 72h-83L293 294l41.5-72Z"/><path fill="#F8C519" d="M334.5 38h83l41.5 71.5-41.5 71.5h-83L293 109.5 334.5 38Z"/><path fill="#F07525" d="M495.25 131h84.5L622 203l-42.25 72h-84.5L453 203l42.25-72Z"/><path fill="#8162AA" d="M495.25 316h84.5L622 387.5 579.75 459h-84.5L453 387.5l42.25-71.5Z"/><path fill="#373737" d="M424.89 209h-99.156L276 294.797 325.734 380h99.156L475 294.765 424.89 209Zm-12.966 148.146h-72.66l-36.956-62.225 36.768-63.067h72.848l36.737 63.067-36.737 62.225ZM424.89 393h-99.156L276 478.719 325.734 564h99.156L475 478.719 424.89 393Zm-12.966 148.102h-72.66l-36.956-62.227 36.768-63.102h72.848l36.737 63.102-36.737 62.227ZM424.89 25h-99.156L276 110.828 325.734 196h99.156L475 110.828 424.89 25Zm-12.966 148.225h-72.66l-36.956-62.397 36.768-63.022h72.848l36.612 63.022-36.612 62.397ZM586.89 301h-99.187L438 386.796 487.703 472h99.187L637 386.796 586.89 301Zm-13.123 148.123h-72.66l-36.768-62.202 36.768-63.169h72.66l36.769 63.044-36.769 62.327ZM586.89 117h-99.187L438 203.267 487.703 289h99.187L637 203.267 586.89 117Zm-13.123 149.044h-72.66l-36.768-62.589 36.768-63.436h72.66l36.769 63.436-36.769 62.589ZM263.142 301h-98.658L115 386.796 164.484 472h98.658L313 386.796 263.142 301Zm-13.026 148.123h-72.294l-36.584-62.202 36.584-63.169h72.294l36.584 63.169-36.584 62.202ZM263.142 117h-98.658L115 203.267 164.484 289h98.658L313 203.267 263.142 117Zm-13.026 149.044h-72.294l-36.584-62.651 36.584-63.437h72.294l36.584 63.437-36.584 62.651Z"/></svg>

<svg width="760" height="840" viewBox="0 0 760 840" fill="none" xmlns="http://www.w3.org/2000/svg">
<path d="M91.1271 663.001C97.549 662.971 103.954 663.673 110.218 665.094C115.667 666.274 120.914 668.253 125.789 670.966V689.708C120.332 687.58 114.733 685.837 109.034 684.491C103.924 683.335 98.7016 682.748 93.4628 682.742C87.8056 682.756 82.1885 683.695 76.8326 685.522C71.2828 687.362 66.2313 690.462 62.0709 694.58C57.395 699.301 53.8119 704.996 51.5758 711.261C48.7104 719.486 47.3494 728.163 47.5584 736.874C47.4977 743.846 48.4953 750.787 50.517 757.459C52.3359 763.447 55.3445 769.004 59.3615 773.795C63.3578 778.457 68.3791 782.125 74.0297 784.509C80.4874 787.206 87.4344 788.525 94.4282 788.382C100.124 788.367 105.803 787.75 111.37 786.539C117.057 785.341 122.623 783.627 128 781.417V800.158C125.94 801.313 123.783 802.285 121.553 803.063C118.693 804.092 115.77 804.937 112.802 805.593C109.46 806.347 106.082 806.93 102.681 807.343C99.1266 807.78 95.5489 807.999 91.9679 807.998C83.0449 808.053 74.1743 806.629 65.7146 803.782C57.6718 801.085 50.301 796.685 44.1016 790.881C37.6721 784.688 32.6848 777.147 29.4957 768.797C25.6753 758.74 23.8146 748.041 24.0146 737.28C23.9164 729.021 24.8581 720.782 26.8174 712.76C28.4961 706.045 31.1064 699.599 34.5719 693.612C37.6378 688.338 41.5163 683.583 46.0636 679.525C54.4324 672.09 64.585 666.967 75.5246 664.656C80.6527 663.555 85.8826 663 91.1271 663.001V663.001Z" fill="#1E2322"/>
<path d="M163 634V609H186.288V634H163ZM163.615 804V666.094H187V804H163.615Z" fill="#1E2322"/>
<path d="M233 804V594H255V804H233Z" fill="#1E2322"/>
<path d="M302 634V609H324.409V634H302ZM302.591 804V666.094H325V804H302.591Z" fill="#1E2322"/>
<path d="M424.575 807.994C418.021 808.075 411.485 807.284 405.14 805.643C399.778 804.314 394.662 802.145 389.982 799.216C385.748 796.508 382.023 793.08 378.976 789.089C375.958 785.172 373.541 780.829 371.806 776.203C370.393 772.492 369.411 768.631 368.881 764.697C368.28 760.165 367.986 755.598 368.001 751.027V666H390.643V750.651C390.478 757.197 391.545 763.716 393.788 769.87C395.991 775.545 399.958 780.369 405.109 783.634C411.126 787.199 418.053 788.942 425.047 788.65C432.343 789.009 439.569 787.08 445.708 783.132C450.898 779.458 454.811 774.264 456.903 768.271C458.676 762.57 459.505 756.618 459.356 750.651V666H481.998V751.027C482.023 755.387 481.76 759.744 481.212 764.07C480.733 767.865 479.879 771.603 478.665 775.231C476.909 779.948 474.472 784.384 471.432 788.399C468.278 792.484 464.45 796.004 460.111 798.808C455.258 801.874 449.952 804.159 444.387 805.58C437.918 807.25 431.257 808.062 424.575 807.994V807.994Z" fill="#1E2322"/>
<path d="M636.627 804H614.115V715.633C614.225 710.48 613.561 705.339 612.145 700.382C611.05 696.562 609.117 693.033 606.485 690.048C604.062 687.389 601.025 685.36 597.636 684.134C593.931 682.834 590.026 682.191 586.098 682.235C578.322 682.177 570.704 684.419 564.211 688.678C557.223 693.394 551.214 699.408 546.513 706.389V804H524V666.641H541.416L545.763 685.721H546.2C548.71 682.55 551.459 679.574 554.424 676.819C557.424 674.037 560.74 671.614 564.304 669.598C568.061 667.456 572.089 665.823 576.28 664.742C580.928 663.56 585.71 662.984 590.507 663.03C599.594 662.687 608.55 665.262 616.053 670.376C623.004 675.539 628.41 682.491 631.687 690.484H632.281C637.84 682.434 644.964 675.576 653.231 670.314C661.513 665.341 671.045 662.815 680.715 663.03C685.918 663.067 691.096 663.746 696.131 665.054C701.607 666.42 706.718 668.959 711.108 672.493C716.01 676.537 719.896 681.663 722.458 687.464C725.734 695.227 727.271 703.608 726.961 712.023V804H704.448V715.633C704.551 710.483 703.898 705.344 702.509 700.382C701.364 696.529 699.39 692.971 696.725 689.954C694.291 687.295 691.243 685.265 687.845 684.04C684.14 682.741 680.235 682.098 676.307 682.142C668.533 682.1 660.92 684.341 654.419 688.585C647.386 693.279 641.343 699.295 636.627 706.296V804Z" fill="#1E2322"/>
<path d="M172.5 131L255.5 131L297 203L255.5 275H172.5L131 203L172.5 131Z" fill="#CBDD72"/>
<path d="M172.5 316L255.5 316L297 387.5L255.5 459H172.5L131 387.5L172.5 316Z" fill="#98CA3F"/>
<path d="M334.5 407L417.5 407L459 478.5L417.5 550H334.5L293 478.5L334.5 407Z" fill="#6389C6"/>
<path d="M334.5 222L417.5 222L459 294L417.5 366H334.5L293 294L334.5 222Z" fill="#E8282B"/>
<path d="M334.5 38L417.5 38L459 109.5L417.5 181H334.5L293 109.5L334.5 38Z" fill="#F8C519"/>
<path d="M495.25 131L579.75 131L622 203L579.75 275H495.25L453 203L495.25 131Z" fill="#F07525"/>
<path d="M495.25 316L579.75 316L622 387.5L579.75 459H495.25L453 387.5L495.25 316Z" fill="#8162AA"/>
<path d="M424.89 209H325.734L276 294.797L325.734 380H424.89L475 294.765L424.89 209ZM411.924 357.146H339.264L302.308 294.921L339.076 231.854H411.924L448.661 294.921L411.924 357.146Z" fill="#373737"/>
<path d="M424.89 393H325.734L276 478.719L325.734 564H424.89L475 478.719L424.89 393ZM411.924 541.102H339.264L302.308 478.875L339.076 415.773H411.924L448.661 478.875L411.924 541.102Z" fill="#373737"/>
<path d="M424.89 25H325.734L276 110.828L325.734 196H424.89L475 110.828L424.89 25ZM411.924 173.225H339.264L302.308 110.828L339.076 47.8062H411.924L448.536 110.828L411.924 173.225Z" fill="#373737"/>
<path d="M586.89 301H487.703L438 386.796L487.703 472H586.89L637 386.796L586.89 301ZM573.767 449.123H501.107L464.339 386.921L501.107 323.752H573.767L610.536 386.796L573.767 449.123Z" fill="#373737"/>
<path d="M586.89 117H487.703L438 203.267L487.703 289H586.89L637 203.267L586.89 117ZM573.767 266.044H501.107L464.339 203.455L501.107 140.019H573.767L610.536 203.455L573.767 266.044Z" fill="#373737"/>
<path d="M263.142 301H164.484L115 386.796L164.484 472H263.142L313 386.796L263.142 301ZM250.116 449.123H177.822L141.238 386.921L177.822 323.752H250.116L286.7 386.921L250.116 449.123Z" fill="#373737"/>
<path d="M263.142 117H164.484L115 203.267L164.484 289H263.142L313 203.267L263.142 117ZM250.116 266.044H177.822L141.238 203.393L177.822 139.956H250.116L286.7 203.393L250.116 266.044Z" fill="#373737"/>
</svg>
